src/assets/Icons/Twitter.svg

<svg width="24" height="20" viewBox="0 0 24 20" fill="none" xmlns="http://www.w3.org/2000/svg">
<path d="M7.55016 19.7502C16.6045 19.7502 21.5583 12.2469 21.5583 5.74211C21.5583 5.53117 21.5536 5.31554 21.5442 5.1046C22.5079 4.40771 23.3395 3.5445 24 2.55554C23.1025 2.95484 22.1496 3.21563 21.1739 3.32898C22.2013 2.71315 22.9705 1.74572 23.3391 0.606011C22.3726 1.1788 21.3156 1.58286 20.2134 1.80085C19.4708 1.01181 18.489 0.48936 17.4197 0.314295C16.3504 0.13923 15.2532 0.321295 14.2977 0.832341C13.3423 1.34339 12.5818 2.15495 12.1338 3.14156C11.6859 4.12816 11.5754 5.23486 11.8195 6.29054C9.86249 6.19233 7.94794 5.68395 6.19998 4.79834C4.45203 3.91274 2.90969 2.66968 1.67297 1.14976C1.0444 2.23349 0.852057 3.51589 1.13503 4.73634C1.418 5.95678 2.15506 7.02369 3.19641 7.72023C2.41463 7.69541 1.64998 7.48492 0.965625 7.10617V7.1671C0.964925 8.30439 1.3581 9.40683 2.07831 10.287C2.79852 11.1672 3.80132 11.7708 4.91625 11.9952C4.19206 12.1934 3.43198 12.2222 2.69484 12.0796C3.00945 13.0577 3.62157 13.9131 4.44577 14.5266C5.26997 15.14 6.26512 15.4808 7.29234 15.5015C5.54842 16.8714 3.39417 17.6144 1.17656 17.6109C0.783287 17.6103 0.390399 17.5861 0 17.5387C2.25286 18.984 4.87353 19.7516 7.55016 19.7502Z" fill="#FD943C"/>
</svg>

<svg width="24" height="20" fill="none" xmlns="http://www.w3.org/2000/svg"><path d="M7.55 19.75c9.055 0 14.008-7.503 14.008-14.008 0-.21-.004-.426-.014-.637A9.999 9.999 0 0 0 24 2.555c-.898.4-1.85.66-2.826.774A4.95 4.95 0 0 0 23.339.606a9.897 9.897 0 0 1-3.126 1.195 4.93 4.93 0 0 0-8.394 4.49A13.985 13.985 0 0 1 1.673 1.15a4.93 4.93 0 0 0 1.523 6.57 4.93 4.93 0 0 1-2.23-.614v.061a4.922 4.922 0 0 0 3.95 4.828 4.894 4.894 0 0 1-2.221.085A4.934 4.934 0 0 0 7.292 15.5 9.875 9.875 0 0 1 0 17.54a13.969 13.969 0 0 0 7.55 2.211Z" fill="#FD943C"/></svg>
